X:40
T:Bye Bye Blues
C:Jethro Burns
N:From the CD "Bye Bye Blues" TablEdited by Gregory J. Thomas
L:1/8
Q:1/4=119
M:4/4
K:C
z2 GA Bc d^d | [e7/1G7/1]z/[e/G/] | [G8E8] | [^G8^D8] | z6 z3/2[^d/^F/] | [e6G6] D[^F^D] | 
[G7/1E7/1]F | [A4G4] [A^F][A=F] [AE][A^D] | [AD][D^C] [D=C][DB,] [DA,][D^G,] [D=G,][DG,] | 
[e6^F6] z[FC] | [A8^F8] | [e7/1A7/1^F7/1][BF] | z6 G2 | [d4E4] [c2E2] zG | [B3D3][A^D] z3[c=D] | 
z3[BD] z2 DA | zG GA Bc d^d | [e6G6] z3/2[e/G/] | [G8E8] | [^G3^F3]_B c^d f[^c'^g] | 
z7/1B | [e8c8] | [G6E6] [GE]G, | [A8^C8] | z[A/^C/][A/C/] [AC]D [^G2D2] [=G2C2] | 
[^FC]e z4 z[AF] | A6 z2 | [e7/1A7/1^F7/1][BG] | z6 z2 | [c6G6C6] c2 | [^G4C4] z[GC] [GC][=GC] | 
[c6E6] [DG,]A, | [dF]e f^f gf =f2 | [DG,][^d^F] [eG][dF] [eG]c AG | [^F^D][G2E2][FD] [GE][FD] [GE]G, | 
[^GC]f [^dG]G [fG]d3 | [f^G]^d2[c'2d2][^g2c2][^c^D] | z[dE] z2 [e4G4C4] | [^f^c^D][g2d2E2][c'2e2G2][g2d2E2]=D | 
[d2E2] [g^cE]D [c2G2] [gc][cEA,] | z7/1[e^F] | z[c^F] z[eF] z2 G,2 | [e^F][cF] z[AF] z4 | 
[eBF]F [eB][eB] F[e3B3] | [BF]B, B,[BF] z2 [F2B,2] | [dE][BE] [BG][BE] [EC][BE] [BG][BE] | 
[dE]c Bc e^d =d^c | cA FE DE FA | (3^G_Bd f^g b4 | z[^d'g] [e'g]f [=d'f][c'e] z2 | 
[bc][a2c2][gc] [dE][c2E2]A | [_bc]^g ^f^d c^G =G^F | ^Gc' ^F_b z[bdF] z[^f_B^D] | 
z[gBE] z2 [b2^d2^G2] [c'2e2A2] | [e'2g2c2] [c3/2E3/2][c'/g/c/] z2 [cE]E | g^D ^f=D =f^C e2 | 
bA _b[a^cG] z[acG] z2 | z[^dG] [eG][dG] [eG][AC] z2 | e[A^F] ze z[eAF] z2 | [_B^D][=BE] e^d e=d [BE][BE] | 
ge g[eB] z[ed] zG, | [cE]C EG ec GG, | (3C^D^F _Bd f^d2f | ec G^F GA Bc | de fg2G, G,G, | 
EG Ac de ge | dc AG EG AG | ^G,C ^D^G cG ^dc | ^g^d _bd c'g G,G, | CD EG Ac de | 
ge dc AG ED | A,A EA GA EA | [EA,][AE] [AEA,]A GA EA | [EA,]A cA ce ^FA | cA ce z2 ^F2 | 
FA cA ce FA | BA Be z2 [B2F2] | zE dc d[cE] z2 | zB zA BA zG | zG zF GF zE | zD ^CD (3EFG (3ABc | 
e2 EG Ac de | ge dc AG EA | ^G,C ^D^G c^d ^g=g | _b^g =g^g c'g G,G, | E/E/G Ac de [ge]e | 
dc AG EG AA | ag eg bg eg | ^c'g eg ba3 | [e6A6] z[A^F] | z6 z[AF] | z6 e2 | [B2F2] z[eBF] z2 [D2G,2] | 
[c'3/2e3/2G3/2][b/^d/^F/] z2 [_b3/2=d3/2=F3/2][a/^c/E/] z[^g=c^D] | z[g^cE] z[dF] z[^d^F] z[c'eG] | 
z4 [b4d4F4] | [c8E8] | 


